X:1
T:Ezio's Family
T:Ezio's Family
%%score { 1 | ( 2 3 ) } 4 ( 5 6 )
L:1/8
Q:1/4=120
M:4/4
K:F
V:1 treble nm="Piano" snm="Pia."
V:2 bass 
V:3 bass 
V:4 treble nm="Violon" snm="Vln."
V:5 tab stafflines=6 strings=E2,A2,D3,G3,B3,E4 nostems nm="Guitare électrique" snm="Guit. El."
V:6 tab stafflines=6 strings=E2,A2,D3,G3,B3,E4 nostems 
V:1
 d4 f4 | g4 a4 | d4 f4 | g4 f4 | d'8 | z8 | d'4 F4 | G4 F4 | D4 F4 | G4 A2 F2 | D4 F4 | G4 F4 | %12
 D4 F4 | G4 A2 F2 | D4 F4 | G4 F4 | D4 F4 | G4 A4 | D4 F4 | G4 F4 | d'2 e'2 f'2 d'2 | %21
 f'2 e'2 d'2 c'2 | d'2 e'2 f'2 d'2 | f'2 e'2 d'2 e'2 | d'2 e'2 f'2 d'2 | a'2 g'2 d'2 e'2 | %26
 d'2 e'2 f'2 d'2 | f'2 e'2 d'2 c'2 | z8 | z8 | z8 | z8 | z8 | z8 | z8 | z8 | z8 | z8 | z8 | z8 | %40
 z8 | z8 | z8 | z8 | D4 F4 | G4 A4 | D4 F4 | G4 F4 | D4 A2 A2 | B4 A4 | z8 | A2 B2 F2 A2 | A6 A2 | %53
 A2 B2 F2 A2 | A8- | A4 z4 | z8 | z4 z2 A2 | B4 A4- | A4 z2 A2 | d4 f4 | g4 f4 | d4 f4 | g4 a4 | %64
 d4 f4 | g4 f4 |!ped! [dd']4 [ff']4!ped-up! |!ped! [gg']4 [aa']4!ped-up! | %68
!ped! [dd']4 [ff']4!ped-up! |!ped! [gg']4 [ff']4!ped-up! |!ped! [dd']4 [ff']4!ped-up! | %71
!ped! [gg']4 [aa']4!ped-up! |!ped! [dd']4 [ff']4!ped-up! |!ped! [gg']4 [ff']4!ped-up! | %74
!ped! [dd']4 [ff']4!ped-up! |!ped! [gg']4 [aa']4!ped-up! |!ped! [dd']4 [ff']4!ped-up! | %77
!ped! [gg']4 [ff']4!ped-up! |!ped! [dd']4 [ff']4!ped-up! |!ped! [gg']4 [aa']4!ped-up! | %80
!ped! [dd']4 [ff']4!ped-up! |!ped! [gg']4 [ff']4!ped-up! |!ped! [dd']4 [ff']4!ped-up! | %83
!ped! [gg']4 [aa']4!ped-up! | d4 f4 | g4 f4 |!mf!!ped! z4 [A,DF]4!ped-up! | z4 [A,DF]4 | %88
 z4 [CDF]4 | z4 [CDF]4 | z4 [B,DF]4 | z4 [B,DF]4 | z4 [A,DF]4 | z8 |!mf! z4 [A,DF]4 | z4 [A,DF]4 | %96
 z4 [CDF]4 | z4 [CDF]4 | z4 [B,DF]4 | z4 [B,DF]4 | z4 [A,DF]4 | z8!p! | z8 | z8 | z8 | z8 | z8 | %107
 z8 | z8 | z8 |] %110
V:2
 z8 | z D,DF, A,DA,F,- | F,D,DF, A,DA,F,- | F,D,DF, A,DA,F,- | F,D,DF, A,DA,F,- | %5
 F,D,DF, A,DA,F,- | F,D,DF, A,DA,F,- | F,D,DF, A,DA,F,- | F,D,DF, A,DA,F,- | F,D,DF, A,DA,F,- | %10
 F,D,DF, A,DA,F,- | F,D,DF, A,DA,F, | [D,A,]4 [A,-D]4 | A,4 A,4 | [C,G,]4 C4 | G,4 G,4 | %16
 [B,,F,]4 B,4 | F,4 F,4 | [D,A,]4 [A,D]4 | F,,4 E,,4 | [D,A,]4 [A,-D]4 | A,4 A,4 | [C,G,]4 C4 | %23
 G,4 G,4 | [B,,F,]4 B,4 | F,4 F,4 | [D,A,]4 [A,D]4 | F,,4 E,,4 | [D,A,]4 [A,-D]4 | A,4 A,4 | %30
 [C,G,]4 C4 | G,4 G,4 | [B,,F,]4 B,4 | F,4 F,4 | [D,A,]4 [A,D]4 | F,,4 E,,4 | [D,A,]4 [A,-D]4 | %37
 A,4 A,4 | [C,G,]4 [G,-C]4 | G,4 G,4 | [B,,F,]4 [F,-B,]4 | F,4 F,4 | [D,A,]4 [A,D]4 | F,,4 E,,4 | %44
 A,8- | A,8- | A,8- | A,8 | A,8- | A,8- | A,8 | A,8- | A,8 | A,8- | A,8- | A,8 | z8 | z8 | %58
 F,D,DF, A,DA,F,- | F,D,DF, A,DA,F,- | F,D,DF, A,DA,F,- | F,D,DF, A,DA,F,- | F,D,DF, A,DA,F,- | %63
 F,D,DF, A,DA,F,- | F,D,DF, A,DA,F,- | F,D,DF, A,DA,F,- | F,D,DF, A,DA,F,- | F,D,DF, A,DA,F,- | %68
 F,D,DF, A,DA,F,- | F,D,DF, A,DA,F,- | F,D,DF, A,DA,F,- | F,D,DF, A,DA,F,- | F,D,DF, A,DA,F,- | %73
 F,D,DF, A,DA,F,- | F,D,DF, A,DA,F,- | F,D,DF, A,DA,F,- | F,D,DF, A,DA,F,- | F,D,DF, A,DA,F, | %78
!fff! z!mf! A,,D,F, A,DA,F, | z A,,D,F, A,DA,F, |!fff! z!mf! A,,D,F, A,DA,F, | z A,,D,F, A,DA,F, | %82
!fff! z!mf! A,,D,F, A,DA,F, | z A,,D,F, A,DA,F, | F,D,DF, A,DA,F,- | F,D,DF, A,DA,F, | %86
 [D,,,D,,]8- | [D,,,D,,]8 | [C,,,C,,]8- | [C,,,C,,]8 | [B,,,,B,,,]8- | [B,,,,B,,,]8 | %92
 [A,,,,A,,,]8 | [A,,,A,,]4 [G,,,G,,]2 [F,,,F,,]2 | [D,,,D,,]8- | [D,,,D,,]8 | [C,,,C,,]8- | %97
 [C,,,C,,]8 | [B,,,,B,,,]8- | [B,,,,B,,,]8 | [A,,,,A,,,]8 | [A,,,A,,]4 [G,,,G,,]2 [F,,,F,,]2 | z8 | %103
 z8 | z8 | z8 | z8 | z8 | z8 | z8 |] %110
V:3
 x8 | x8 | x8 | x8 | x8 | x8 | x8 | x8 | x8 | x8 | x8 | x8 | x8 | x8 | x4 G,4- | x8 | x4 F,4- | %17
 x8 | x8 | x8 | x8 | x8 | x4 G,4- | x8 | x4 F,4- | x8 | x8 | x8 | x8 | x8 | x4 G,4- | x8 | %32
 x4 F,4- | x8 | x8 | x8 | x8 | x8 | x8 | x8 | x8 | x8 | x8 | x8 | x8 | x8 | x8 | x8 | x8 | x8 | %50
 x8 | x8 | x8 | x8 | x8 | x8 | x8 | x8 | x8 | x8 | x8 | x8 | x8 | x8 | x8 | x8 | x8 | x8 | x8 | %69
 x8 | x8 | x8 | x8 | x8 | x8 | x8 | x8 | x8 | !>![D,,,D,,]8- | [D,,,D,,]8 | !>![C,,,C,,]8- | %81
 [C,,,C,,]8 | !>![B,,,,B,,,]8- | [B,,,,B,,,]8 | x8 | x8 | x8 | x8 | x8 | x8 | x8 | x8 | x8 | x8 | %94
 x8 | x8 | x8 | x8 | x8 | x8 | x8 | x8 | x8 | x8 | x8 | x8 | x8 | x8 | x8 | x8 |] %110
V:4
 z8 | z8 | z8 | z8 | (D4 A4) | (G4 A4) | (D4 A4) | (G4 F4) | (D4 A4) | (G4 A4) | (D4 A4) | %11
 (G4 F4) | (D4 F4) | (G4 A2 F2) | (D4 F4) | (G4 F4) | (D4 F4) | (G4 A4) | (D4 F4) | (G4 F4) | %20
 (D4 F4) | (G4 A4) | (D4 F4) | (G4 F4) | (D4 F4) | (G4 A4) | (D4 F4) | (G4 F4) | z4!f! A4 | d6 A2 | %30
 z4 A4 | B6 A2 | z4 G4 | A6 G2 | z4 A4- | A2 F2 G2 E2 | z4 A4 | B6 A2 | z4 A4 | d6 A2 | z4 B4 | %41
 f6 d2 | z4 d4 | A4 F2 E2 | z8 | z8 | z8 | z8 | z4!mf! A2 A2 | B4 A4 | z8 | A2 B2 F2 A2 | A6 A2 | %53
 A2 B2 F2 A2 | A8- | A4 z4 | z8 | z4 z2 A2 | B4 A4- | A4 z2 A2 |!mf!!<(! B8- | B8 | d8- | d8!<)! | %64
!f! f8- | f8- | f8 | z8 | z8 | z8 |!mf! (D4 F4) | (G4 A4) | (D4 F4) | (G4 F4) | (D4 F4) | (G4 A4) | %76
 (D4 F4) | (G4 F4) |!<(! (D4 F4) | (G4 A4) | (d4 e4) | (f4 g4)!<)!!f! | a8- |!>(! a8!>)! | z8 | %85
 z8 | (D4 F4) | (G4 A4) | (D4 F4) | (G4 F4) | (D4 F4) | (G4 A4) | (D4 F4) | (G4 F4) | (D4 F4) | %95
 (G4 A4) | (D4 F4) | (G4 F4) | (D4 F4) | (G4 A4) | (D4 F4) | (G4 F4) | z8 | z8 | z8 | z8 | z8 | %107
 z8 | z8 | z8 |] %110
V:5
 x8 | x8 | x8 | x8 | x8 | x8 | x4 !1!F4 | !1!G4 !1!F4 | !2!D4 !1!F4 | !1!G4 !1!A2 !1!F2 | %10
 !2!D4 !1!F4 | !1!G4 !1!F4 | %12
 [!4!D,!3!A,!2!D!1!F]2 [!4!D,!3!A,!2!D!1!F] [!4!D,!3!A,!2!D!1!F] [!4!D,!3!A,!2!D!1!F] [!4!D,!3!A,!2!D!1!F]2 [!4!D,!3!A,!2!D!1!F] | %13
 [!4!D,!3!A,!2!D!1!F] [!4!D,!3!A,!2!D!1!F]2 [!4!D,!3!A,!2!D!1!F] [!4!D,!3!A,!2!D!1!F] [!4!D,!3!A,!2!D!1!F] [!4!D,!3!A,!2!D!1!F]2 | %14
 [!5!C,!4!D,!3!G,!2!D!1!F]2 [!5!C,!4!D,!3!G,!2!D!1!F] [!5!C,!4!D,!3!G,!2!D!1!F] [!5!C,!4!D,!3!G,!2!D!1!F] [!5!C,!4!D,!3!G,!2!D!1!F]2 [!4!D,!3!G,!2!D!1!F] | %15
 [!4!D,!3!G,!2!D!1!F] [!5!C,!4!E,!3!G,!2!D!1!F]2 [!5!C,!4!E,!3!G,!2!D!1!F] [!5!C,!4!E,!3!G,!2!D!1!F] [!5!C,!4!D,!3!G,!2!D!1!F] [!5!C,!4!D,!3!G,!2!D!1!F]2 | %16
 [!5!B,,!4!F,!3!A,!2!D!1!F]2 [!5!B,,!4!F,!3!A,!2!D!1!F] [!5!B,,!4!F,!3!A,!2!D!1!F] [!5!B,,!4!F,!3!A,!2!D!1!F] [!5!B,,!4!F,!3!A,!2!D!1!F]2 [!5!B,,!4!F,!3!A,!2!D!1!F] | %17
 [!5!B,,!4!F,!3!A,!2!D!1!F] [!5!B,,!4!F,!3!A,!2!D!1!F]2 [!4!F,!3!A,!2!D!1!G] [!4!F,!3!A,!2!D!1!G] [!4!F,!3!A,!2!D!1!G] [!4!F,!3!A,!2!D!1!G]2 | %18
 [!4!D,!3!A,!2!D!1!F]2 [!4!D,!3!A,!2!D!1!F] [!4!D,!3!A,!2!D!1!F] [!4!D,!3!A,!2!D!1!F] [!4!D,!3!A,!2!D!1!F]2 [!4!D,!3!A,!2!D!1!F] | %19
 [!4!D,!3!A,!2!D!1!G] [!4!D,!3!A,!2!D!1!G] [!4!D,!3!A,!2!D!1!G] [!4!D,!3!A,!2!D!1!G] [!4!D,!3!A,!2!D!1!F] [!4!D,!3!A,!2!D!1!F] [!4!D,!3!A,!2!D!1!F] [!4!D,!3!A,!2!D!1!F] | %20
 [!4!D,!3!A,!2!D!1!F]2 [!4!D,!3!A,!2!D!1!F] [!4!D,!3!A,!2!D!1!F] [!4!D,!3!A,!2!D!1!F] [!4!D,!3!A,!2!D!1!F]2 [!4!D,!3!A,!2!D!1!F] | %21
 [!4!D,!3!A,!2!D!1!F] [!4!D,!3!A,!2!D!1!F]2 [!4!D,!3!A,!2!D!1!F] [!4!D,!3!A,!2!D!1!F] [!4!D,!3!A,!2!D!1!F] [!4!D,!3!A,!2!D!1!F]2 | %22
 [!5!C,!4!D,!3!G,!2!D!1!F]2 [!5!C,!4!D,!3!G,!2!D!1!F] [!5!C,!4!D,!3!G,!2!D!1!F] [!5!C,!4!D,!3!G,!2!D!1!F] [!5!C,!4!D,!3!G,!2!D!1!F]2 [!4!D,!3!G,!2!D!1!F] | %23
 [!4!D,!3!G,!2!D!1!F] [!5!C,!4!E,!3!G,!2!D!1!F]2 [!5!C,!4!E,!3!G,!2!D!1!F] [!5!C,!4!E,!3!G,!2!D!1!F] [!5!C,!4!D,!3!G,!2!D!1!F] [!5!C,!4!D,!3!G,!2!D!1!F]2 | %24
 [!5!B,,!4!F,!3!A,!2!D!1!F]2 [!5!B,,!4!F,!3!A,!2!D!1!F] [!5!B,,!4!F,!3!A,!2!D!1!F] [!5!B,,!4!F,!3!A,!2!D!1!F] [!5!B,,!4!F,!3!A,!2!D!1!F]2 [!5!B,,!4!F,!3!A,!2!D!1!F] | %25
 [!5!B,,!4!F,!3!A,!2!D!1!F] [!5!B,,!4!F,!3!A,!2!D!1!F]2 [!4!F,!3!A,!2!D!1!G] [!4!F,!3!A,!2!D!1!G] [!4!F,!3!A,!2!D!1!G] [!4!F,!3!A,!2!D!1!G]2 | %26
 [!4!D,!3!A,!2!D!1!F]2 [!4!D,!3!A,!2!D!1!F] [!4!D,!3!A,!2!D!1!F] [!4!D,!3!A,!2!D!1!F] [!4!D,!3!A,!2!D!1!F]2 [!4!D,!3!A,!2!D!1!F] | %27
 [!4!D,!3!A,!2!D!1!G] [!4!D,!3!A,!2!D!1!G] [!4!D,!3!A,!2!D!1!G] [!4!D,!3!A,!2!D!1!G] [!4!D,!3!A,!2!D!1!F] [!4!D,!3!A,!2!D!1!F] [!4!D,!3!A,!2!D!1!F] [!4!D,!3!A,!2!D!1!F] | %28
 [!4!D,!3!A,!2!D!1!F]2 [!4!D,!3!A,!2!D!1!F] [!4!D,!3!A,!2!D!1!F] [!4!D,!3!A,!2!D!1!F] [!4!D,!3!A,!2!D!1!F]2 [!4!D,!3!A,!2!D!1!F] | %29
 [!4!D,!3!A,!2!D!1!F] [!4!D,!3!A,!2!D!1!F]2 [!4!D,!3!A,!2!D!1!F] [!4!D,!3!A,!2!D!1!F] [!4!D,!3!A,!2!D!1!F] [!4!D,!3!A,!2!D!1!F]2 | %30
 [!5!C,!4!D,!3!G,!2!D!1!F]2 [!5!C,!4!D,!3!G,!2!D!1!F] [!5!C,!4!D,!3!G,!2!D!1!F] [!5!C,!4!D,!3!G,!2!D!1!F] [!5!C,!4!D,!3!G,!2!D!1!F]2 [!4!D,!3!G,!2!D!1!F] | %31
 [!4!D,!3!G,!2!D!1!F] [!5!C,!4!E,!3!G,!2!D!1!F]2 [!5!C,!4!E,!3!G,!2!D!1!F] [!5!C,!4!E,!3!G,!2!D!1!F] [!5!C,!4!D,!3!G,!2!D!1!F] [!5!C,!4!D,!3!G,!2!D!1!F]2 | %32
 [!5!B,,!4!F,!3!A,!2!D!1!F]2 [!5!B,,!4!F,!3!A,!2!D!1!F] [!5!B,,!4!F,!3!A,!2!D!1!F] [!5!B,,!4!F,!3!A,!2!D!1!F] [!5!B,,!4!F,!3!A,!2!D!1!F]2 [!5!B,,!4!F,!3!A,!2!D!1!F] | %33
 [!5!B,,!4!F,!3!A,!2!D!1!F] [!5!B,,!4!F,!3!A,!2!D!1!F]2 [!4!F,!3!A,!2!D!1!G] [!4!F,!3!A,!2!D!1!G] [!4!F,!3!A,!2!D!1!G] [!4!F,!3!A,!2!D!1!G]2 | %34
 [!4!D,!3!A,!2!D!1!F]2 [!4!D,!3!A,!2!D!1!F] [!4!D,!3!A,!2!D!1!F] [!4!D,!3!A,!2!D!1!F] [!4!D,!3!A,!2!D!1!F]2 [!4!D,!3!A,!2!D!1!F] | %35
 [!4!D,!3!A,!2!D!1!G] [!4!D,!3!A,!2!D!1!G] [!4!D,!3!A,!2!D!1!G] [!4!D,!3!A,!2!D!1!G] [!4!D,!3!A,!2!D!1!F] [!4!D,!3!A,!2!D!1!F] [!4!D,!3!A,!2!D!1!F] [!4!D,!3!A,!2!D!1!F] | %36
 [!4!D,!3!A,!2!D!1!F]2 [!4!D,!3!A,!2!D!1!F] [!4!D,!3!A,!2!D!1!F] [!4!D,!3!A,!2!D!1!F] [!4!D,!3!A,!2!D!1!F]2 [!4!D,!3!A,!2!D!1!F] | %37
 [!4!D,!3!A,!2!D!1!F] [!4!D,!3!A,!2!D!1!F]2 [!4!D,!3!A,!2!D!1!F] [!4!D,!3!A,!2!D!1!F] [!4!D,!3!A,!2!D!1!F] [!4!D,!3!A,!2!D!1!F]2 | %38
 [!5!C,!4!D,!3!G,!2!D!1!F]2 [!5!C,!4!D,!3!G,!2!D!1!F] [!5!C,!4!D,!3!G,!2!D!1!F] [!5!C,!4!D,!3!G,!2!D!1!F] [!5!C,!4!D,!3!G,!2!D!1!F]2 [!4!D,!3!G,!2!D!1!F] | %39
 [!4!D,!3!G,!2!D!1!F] [!5!C,!4!E,!3!G,!2!D!1!F]2 [!5!C,!4!E,!3!G,!2!D!1!F] [!5!C,!4!E,!3!G,!2!D!1!F] [!5!C,!4!D,!3!G,!2!D!1!F] [!5!C,!4!D,!3!G,!2!D!1!F]2 | %40
 [!5!B,,!4!F,!3!A,!2!D!1!F]2 [!5!B,,!4!F,!3!A,!2!D!1!F] [!5!B,,!4!F,!3!A,!2!D!1!F] [!5!B,,!4!F,!3!A,!2!D!1!F] [!5!B,,!4!F,!3!A,!2!D!1!F]2 [!5!B,,!4!F,!3!A,!2!D!1!F] | %41
 [!5!B,,!4!F,!3!A,!2!D!1!F] [!5!B,,!4!F,!3!A,!2!D!1!F]2 [!4!F,!3!A,!2!D!1!G] [!4!F,!3!A,!2!D!1!G] [!4!F,!3!A,!2!D!1!G] [!4!F,!3!A,!2!D!1!G]2 | %42
 [!4!D,!3!A,!2!D!1!F]2 [!4!D,!3!A,!2!D!1!F] [!4!D,!3!A,!2!D!1!F] [!4!D,!3!A,!2!D!1!F] [!4!D,!3!A,!2!D!1!F]2 [!4!D,!3!A,!2!D!1!F] | %43
 [!4!D,!3!A,!2!D!1!G] [!4!D,!3!A,!2!D!1!G] [!4!D,!3!A,!2!D!1!G] [!4!D,!3!A,!2!D!1!G] [!4!D,!3!A,!2!D!1!F] [!4!D,!3!A,!2!D!1!F] [!4!D,!3!A,!2!D!1!F] [!4!D,!3!A,!2!D!1!F] | %44
 !2!D4 !1!F4 | !1!G4 !1!A4 | !2!D4 !1!F4 | !1!G4 !1!F4 | !2!D4 !1!F4 | !1!G4 !1!A4 | !2!D4 !1!F4 | %51
 !1!G4 !1!F4 | !2!D4 !1!F4 | !1!G4 !1!A4 | !2!D4 !1!F4 | !1!G4 !1!F4 | !2!D4 !1!F4 | !1!G4 !1!A4 | %58
 [!4!D,!3!A,!2!D!1!F]2 [!4!D,!3!A,!2!D!1!F] [!4!D,!3!A,!2!D!1!F] [!4!D,!3!A,!2!D!1!F] [!4!D,!3!A,!2!D!1!F]2 [!4!D,!3!A,!2!D!1!F] | %59
 [!4!D,!3!A,!2!D!1!F] [!4!D,!3!A,!2!D!1!F]2 [!4!D,!3!A,!2!D!1!F] [!4!D,!3!A,!2!D!1!F] [!4!D,!3!A,!2!D!1!F] [!4!D,!3!A,!2!D!1!F]2 | %60
 [!4!D,!3!A,!2!D!1!F]2 [!4!D,!3!A,!2!D!1!F] [!4!D,!3!A,!2!D!1!F] [!4!D,!3!A,!2!D!1!F] [!4!D,!3!A,!2!D!1!F]2 [!4!D,!3!A,!2!D!1!F] | %61
 [!4!D,!3!A,!2!D!1!F] [!4!D,!3!A,!2!D!1!F]2 [!4!D,!3!A,!2!D!1!F] [!4!D,!3!A,!2!D!1!F] [!4!D,!3!A,!2!D!1!F] [!4!D,!3!A,!2!D!1!F]2 | %62
 [!4!D,!3!A,!2!D!1!F]2 [!4!D,!3!A,!2!D!1!F] [!4!D,!3!A,!2!D!1!F] [!4!D,!3!A,!2!D!1!F] [!4!D,!3!A,!2!D!1!F]2 [!4!D,!3!A,!2!D!1!F] | %63
 [!4!D,!3!A,!2!D!1!F] [!4!D,!3!A,!2!D!1!F]2 [!4!D,!3!A,!2!D!1!F] [!4!D,!3!A,!2!D!1!F] [!4!D,!3!A,!2!D!1!F] [!4!D,!3!A,!2!D!1!F]2 | %64
 [!4!D,!3!A,!2!D!1!F]2 [!4!D,!3!A,!2!D!1!F] [!4!D,!3!A,!2!D!1!F] [!4!D,!3!A,!2!D!1!F] [!4!D,!3!A,!2!D!1!F]2 [!4!D,!3!A,!2!D!1!F] | %65
 [!4!D,!3!A,!2!D!1!F] [!4!D,!3!A,!2!D!1!F]2 [!4!D,!3!A,!2!D!1!F] [!4!D,!3!A,!2!D!1!F] [!4!D,!3!A,!2!D!1!F] [!4!D,!3!A,!2!D!1!F]2 | %66
 x!ped! !1!f !2!d !3!A x !1!f !2!d !3!A!ped-up! | x!ped! !1!f !2!d !3!A x !1!f !2!d !3!A!ped-up! | %68
 x!ped! !1!f !2!d !3!A x !1!f !2!d !3!A!ped-up! | x!ped! !1!f !2!d !3!A x !1!f !2!d !3!A!ped-up! | %70
 x!ped! !1!f !2!d !3!A x !1!f !2!d !3!A!ped-up! | x!ped! !1!f !2!d !3!A x !1!f !2!d !3!A!ped-up! | %72
 x!ped! !1!f !2!d !3!A x !1!f !2!d !3!A!ped-up! | x!ped! !1!f !2!d !3!A x !1!f !2!d !3!A!ped-up! | %74
 x!ped! !1!f !2!d !3!A x !1!f !2!d !3!A!ped-up! | x!ped! !1!f !2!d !3!A x !1!f !2!d !3!A!ped-up! | %76
 x!ped! !1!f !2!d !3!A x !1!f !2!d !3!A!ped-up! | x!ped! !1!f !2!d !3!A x !1!f !2!d !3!A!ped-up! | %78
 [!4!D,!3!A,!2!D]8- | [!4!D,!3!A,!2!D]8 | [!5!C,!3!G,!2!C]8- | [!5!C,!3!G,!2!C]8 | %82
 [!5!B,,!4!F,!3!B,]8- | [!5!B,,!4!F,!3!B,]8 | x8 | x8 | [!4!D,!3!A,!2!D]8- | [!4!D,!3!A,!2!D]8 | %88
 [!5!C,!3!G,!2!C]8- | [!5!C,!3!G,!2!C]8 | [!5!B,,!4!F,!3!B,]8- | [!5!B,,!4!F,!3!B,]8 | %92
 [!5!A,,!4!E,!3!A,]8- | [!5!A,,!4!E,!3!A,]8 | [!4!D,!3!A,!2!D]8- | [!4!D,!3!A,!2!D]8 | %96
 [!5!C,!3!G,!2!C]8- | [!5!C,!3!G,!2!C]8 | [!5!B,,!4!F,!3!B,]8- | [!5!B,,!4!F,!3!B,]8 | %100
 [!5!A,,!4!E,!3!A,]8- | [!5!A,,!4!E,!3!A,]8 | !2!D4 !1!F4 | !1!G4 !1!A4 | !2!D4 !1!F4 | %105
 !1!G4 !1!F4 | !2!D4 !1!F4 | !1!G4 !1!A4 |!>(! !2!D4 !1!F4 | !1!G4 !1!F4!>)! |] %110
V:6
 x8 | x8 | x8 | x8 | x8 | x8 | x8 | x8 | x8 | x8 | x8 | x8 | x8 | x8 | x4 x2 x !5!C, | x8 | x8 | %17
 x8 | x8 | x8 | x8 | x8 | x4 x2 x !5!C, | x8 | x8 | x8 | x8 | x8 | x8 | x8 | x4 x2 x !5!C, | x8 | %32
 x8 | x8 | x8 | x8 | x8 | x8 | x4 x2 x !5!C, | x8 | x8 | x8 | x8 | x8 | x8 | x8 | x8 | x8 | x8 | %49
 x8 | x8 | x8 | x8 | x8 | x8 | x8 | x8 | x8 | x8 | x8 | x8 | x8 | x8 | x8 | x8 | x8 | x8 | x8 | %68
 x8 | x8 | x8 | x8 | x8 | x8 | x8 | x8 | x8 | x8 | x8 | x8 | x8 | x8 | x8 | x8 | x8 | x8 | x8 | %87
 x8 | x8 | x8 | x8 | x8 | x8 | x8 | x8 | x8 | x8 | x8 | x8 | x8 | x8 | x8 | x8 | x8 | x8 | x8 | %106
 x8 | x8 | x8 | x8 |] %110

